Assets/icons/history.svg

<svg version="1.1" xmlns="http://www.w3.org/2000/svg" xmlns:xlink="http://www.w3.org/1999/xlink" width="24px" height="24px" viewBox="0,0,256,256"><g fill="#ffffff" fill-rule="nonzero" stroke="none" stroke-width="1" stroke-linecap="butt" stroke-linejoin="miter" stroke-miterlimit="10" stroke-dasharray="" stroke-dashoffset="0" font-family="none" font-weight="none" font-size="none" text-anchor="none" style="mix-blend-mode: normal"><g transform="translate(5.33333,0) scale(10.66667,10.66667)"><path d="M13.5,8h-1.5v5l4.28,2.54l0.72,-1.21l-3.5,-2.08v-4.25M13,3c-4.97056,0 -9,4.02944 -9,9h-3l3.96,4.03l4.04,-4.03h-3c0,-3.86599 3.13401,-7 7,-7c3.86599,0 7,3.13401 7,7c0,3.86599 -3.13401,7 -7,7c-1.93,0 -3.68,-0.79 -4.94,-2.06l-1.42,1.42c1.63,1.64 3.86,2.64 6.36,2.64c4.97056,0 9,-4.02944 9,-9c0,-4.97056 -4.02944,-9 -9,-9"></path></g></g></svg>

<svg xmlns="http://www.w3.org/2000/svg" viewBox="0 0 24 24"><path d="M13.5,8H12V13L16.28,15.54L17,14.33L13.5,12.25V8M13,3A9,9 0 0,0 4,12H1L4.96,16.03L9,12H6A7,7 0 0,1 13,5A7,7 0 0,1 20,12A7,7 0 0,1 13,19C11.07,19 9.32,18.21 8.06,16.94L6.64,18.36C8.27,20 10.5,21 13,21A9,9 0 0,0 22,12A9,9 0 0,0 13,3" /></svg>
